X: 227
%
T: High Road to Linton
C:
O:Scotland
B:Keith Norman MacDonald : "The Skye collection of the best reels & strathspeys extant" : 1887
Z:Ralph Palmer
R:Reel
M:C
L:1/8
K:A
e | {/d}ceeg {/g}a2 a>e | fefg {/g}a2 (ae) | ceeg {/g}a2 (ae) | f{/g}aec {dc}B2A ::
d | {/d}cee{/g}a fddf | ecce fBBd | {/d}(ce)e{/g}a fddf | ec{/g}ac B2 A :|


